**kern	**kern	**dynam
*part1	*part1	*part1
*staff2	*staff1	*
*I"Piano	*	*
*clefF4	*clefG2	*
*k[f#]	*k[f#]	*
*	*   ‘Walstakt’ = ‘Waltz time’,  ‘sorgenlos’ = ‘carefree’   	*
=1	=1	=1
4GG 4G	4a 4ffn 4aa	.
4AA 4A	4g 4ee 4gg	.
4BB 4B	4fn 4dd 4ffn	.
=	=	=
4C 4c	4fn 4b 4dd#X	.
4G 4c	4e 4cc 4ee	.
4r	8r	.
.	8cc 8ee	.
=	=	=
4DD 4D	4e 4f#X 4cc 4ee	.
4EE 4E	4e 4g 4dd	.
4FF# 4F#	4d 4a 4cc	.
=	=	=
*	*^	*
4GG 4G	8a#XL	4d	.
.	8bJ	.	.
*	*v	*v	*
4G 4B	2d 2b	.
4G 4B	.	.
=	=	=
4GG 4G	4c#X~ 4e	p
4GG 4G	4c#~ 4e	.
4GG 4G	4c#~ 4e	.
=	=	=
4D 4G	4B 4g	.
4D 4G	4B 4d	.
8r	8r	<
8B 8d	8g 8b	.
=	=	=
!	!LO:TX:a:i:t=giocoso	!
4A 4c	8aL 8cc	.
.	8bJ 8dd	.
4D	4cc 4ee	[ f
*	*^	*
4DD 4D	8eeL	4a 4cc	.
.	8ff#J	.	.
*	*v	*v	*
=	=	=
2GG 2D	8bL 8gg	.
.	8ddJ 8aa	.
.	4gg 4bb	.
4r	8ggL 8bb	.
.	8aaJ 8ddd	.
=||	=||	=||
!	!LO:TX:b:i:t=rit.	!
4e 4g	4bb 4ggg	.
4e 4g	4r	.
4g	4r	.
=||	=||	=||
*	*^	*
2.CC 2.C	(2.g	4G 4e	p
.	.	4G 4e	.
.	.	4G 4e	.
*	*v	*v	*
=	=	=
*-	*-	*-
!!!system-decoration: {(s1,s2)}
